icons/360-view-24.svg

<svg xmlns="http://www.w3.org/2000/svg" viewBox="0 0 24 24"><path d="M12 2.1A41.07 41.07 0 0 1 0 0v14a40.8 40.8 0 0 1 12-2.1A41.07 41.07 0 0 1 24 14V0a41.13 41.13 0 0 1-12 2.1zm0 8.9a40.21 40.21 0 0 0-8.59 1.1L8 8l1 1 2.92-2.92 2.94 3.93L17.4 8l3.45 4.12A40.33 40.33 0 0 0 12 11zm11 1.73l-.9-.25L17.5 7 15 9l-3-4-3 3-1-1-6.16 5.49-.84.24V1.27A42.06 42.06 0 0 0 12 3a42.06 42.06 0 0 0 11-1.73zM20.5 6A1.5 1.5 0 1 0 19 4.5 1.5 1.5 0 0 0 20.5 6zm0-2.17a.67.67 0 1 1-.67.67.67.67 0 0 1 .67-.67zM23 18.5c0 1.6-3.39 2.95-8 3.36V24l-3-2.5 3-2.5v2c4.62-.45 7-1.84 7-2.46s-3.4-2.6-10-2.6S2 17.75 2 18.5s2.72 2.21 8 2.5v.9c-5.12-.3-9-1.72-9-3.44C1 16.57 5.92 15 12 15s11 1.57 11 3.5z"/></svg>

<svg id="icons" xmlns="http://www.w3.org/2000/svg" viewBox="0 0 24 24"><title>360-view-24</title><path d="M12,2.1A41.07,41.07,0,0,1,0,0V14a40.8,40.8,0,0,1,12-2.1A41.07,41.07,0,0,1,24,14V0A41.13,41.13,0,0,1,12,2.1ZM12,11a40.21,40.21,0,0,0-8.59,1.1L8,8l1,1,2.92-2.92,2.94,3.93L17.4,8l3.45,4.12A40.33,40.33,0,0,0,12,11Zm11,1.73-.9-.25L17.5,7,15,9,12,5,9,8,8,7,1.84,12.49,1,12.73V1.27A42.06,42.06,0,0,0,12,3,42.06,42.06,0,0,0,23,1.27ZM20.5,6A1.5,1.5,0,1,0,19,4.5,1.5,1.5,0,0,0,20.5,6Zm0-2.17a.67.67,0,1,1-.67.67A.67.67,0,0,1,20.5,3.83ZM23,18.5c0,1.6-3.39,2.95-8,3.36V24l-3-2.5L15,19v2c4.62-.45,7-1.84,7-2.46s-3.4-2.6-10-2.6S2,17.75,2,18.5,4.72,20.71,10,21v.9c-5.12-.3-9-1.72-9-3.44C1,16.57,5.92,15,12,15S23,16.57,23,18.5Z"/></svg>
